src/icons/desktop.svg

<svg xmlns="http://www.w3.org/2000/svg" width="24" height="24" fill="none"><path fill="currentColor" d="M14 12h-4v2h4z"/><path fill="currentColor" fill-rule="evenodd" d="M1 2v15h8v2H7v2h10v-2h-2v-2h8V2zm20 2H3v11h18zM11 19v-2h2v2z" clip-rule="evenodd"/></svg>

<svg width="24" height="24" viewBox="0 0 24 24" fill="none" xmlns="http://www.w3.org/2000/svg">
<path d="M14 12H10V14H14V12Z" fill="black"/>
<path fill-rule="evenodd" clip-rule="evenodd" d="M1 2V17H9V19H7V21H17V19H15V17H23V2H1ZM21 4H3V15H21V4ZM11 19V17H13V19H11Z" fill="black"/>
</svg>
